!!!!SEGMENT: pl-kk--kk-i-10--008-003_pekiel-bartlomiej--missa-patrem.krn
!!!cenid: 16xx:1197
!!!COM: Pękiel, Bartłomiej
!!!COM-rismID: pe30105642
!!!CDT: <1633-~1670
!!!CNT: Polish
!!!OPR: Missa
!!!OTL: Patrem
!!!OMV: 003
!!!PDT:
!!!AGN: Sacred; Mass
!!!SMS-siglum: PL-Kk
!!!SMS-shelfmark: Kk.I.10
!!!SMS-shelfwork: 008-003 M
!!!SMS-variant:
!!!SMS-altvar:
!!!NIFC-rismSourceID: 1001151827
!!!NIFC-rismChildID: 1001153818
!!!NIFC-islandoraID: pl-kk:2434
!!!URL-pdf-islandora: https://repozytorium.nifc.pl/islandora/object/pl-kk%3A2434/datastream/PDF/view
!!!URL-scan: https://polish.musicsources.pl/pl/lokalizacje/galeria/rekopisy/5737 @EN{Scan on Polish Music Sources Website} @PL{Skany w portalu Dziedzictwo Muzyki Polskiej w otwartym dostępie}
!!!ONB-nifc: UWAGA: części Mszy: 1. Kyrie, 2. Et in terra, 3. Patrem, 4. Sanctus, 5. Benedictus, 6. Agnus Dei. T1 (0015-0019), T2 (0065-0069), B (0114-0118).
!!!AIN: 2 empty 1 tenor
!!!key:
**kern	**text	**kern	**text	**text	**kern	**text
*part3	*part3	*part2	*part2	*part2	*part1	*part1
*staff3	*staff3	*staff2	*staff2	*staff2	*staff1	*staff1
*Iempty	*	*Itenor	*	*	*Iempty	*
*I"Basssus.	*	*I"2do Tenore	*	*	*I"Primus	*
*I'B	*	*I'T 2	*	*	*I'1	*
*clefF4	*	*clefC4	*	*	*clefC4	*
*k[]	*	*k[]	*	*	*k[]	*
*G:	*	*G:	*	*	*G:	*
*M2/1	*	*M2/1	*	*	*M2/1	*
*met(C)	*	*met(C|)	*	*	*met(C)	*
!!LO:TX:t=P:problem:, jako rozdzielacz słów na 1 linii
=1-	=1-	=1-	=1-	=1-	=1-	=1-
1G	Pa-	1B	Pa-	.	1d	Pa-
*	*	*2\right	*	*	*2\right	*
1C	-trem	2c\	-trem	.	2e\	-trem
.	.	2e\	o-	.	2c\	om-
=2-	=2-	=2-	=2-	=2-	=2-	=2-
2GG/	o-	4d\	-mni-	.	4B\	-ni-
.	.	4c\	-po-	.	4A/	.
1G	-mni-	1B	-ten-	.	4G/	.
.	.	.	.	.	4A/	.
.	.	.	.	.	4B\	.
.	.	.	.	.	4c\	.
*2\right	*	*	*	*	*	*
2F\	-po-	2A/	.	.	1d\	-po-
=3-	=3-	=3-	=3-	=3-	=3-	=3-
1E	-ten-	1e	.	.	.	.
!	!	!	!	!	!LO:TX:b:t=P:problem=# below	!
.	.	.	.	.	2c#X\	-ten-
2D,</	-tem	1A	-tem	.	1d	-tem
2D/	Fa-	.	.	.	.	.
=4-	=4-	=4-	=4-	=4-	=4-	=4-
1G	-cto-	1r	.	.	2r	.
.	.	.	.	.	2B\	Fac-
1E	-rem	2r	.	.	1e	-to-
.	.	2G/	Fac-	.	.	.
=5-	=5-	=5-	=5-	=5-	=5-	=5-
2.A\	cae-	1c	-to-	.	1cny	-rem
4G\	.	.	.	.	.	.
4F\	.	2A/	-rem	.	00r	.
4E\	.	.	.	.	.	.
4D\	.	4d\	cae-	.	.	.
8E\L	.	4c\	.	.	.	.
8F\J	.	.	.	.	.	.
=6-	=6-	=6-	=6-	=6-	=6-	=6-
!LO:LB:g=original	!	!	!	!	!	!
4G\	.	4B\	.	.	.	.
*	*	*custos:G	*	*	*	*
4F\	.	4A/	.	.	.	.
!	!	!LO:PB:g=original	!	!	!	!
4E\	.	4G/	.	.	.	.
4D\	.	8A/L	.	.	.	.
.	.	8B/J	.	.	.	.
1C	.	4c\	.	.	.	.
.	.	4B\	.	.	.	.
.	.	4A/	.	.	.	.
.	.	4G/	.	.	.	.
=7-	=7-	=7-	=7-	=7-	=7-	=7-
2D\	-li	4F#X/	-li	.	.	.
.	.	4F#/	et	.	.	.
2GG/	et	2.G/	ter-	.	.	.
!LO:TX:t=P:problem=kreska pseudotaktowa	!	!	!	!	!	!
1D	ter-	.	.	.	2r	.
!	!	!LO:TX:b:t=P:problem=# below	!	!	!	!
.	.	8F#X/L	.	.	.	.
.	.	8E/J	.	.	.	.
.	.	2F#/	.	.	2.d\	vi-
=8-	=8-	=8-	=8-	=8-	=8-	=8-
4GG/	-rae	4G/	-rae	.	.	.
2G\	vi-	2B\	vi-	.	4d\	-si-
.	.	.	.	.	4.e\	-bi-
!LO:TX:t=P:problem=kreska pseudotaktowa	!	!	!	!	!	!
4G\	-si-	4B\	-si-	.	.	.
.	.	.	.	.	8d\	.
!	!	!	!	!	!LO:LB:g=original	!
4.A\	-bi-	4.c\	-bi-	.	4.c\	.
8G\	-li-	8B\	-li-	.	8c\	-li-
!LO:TX:a:t=P:problem=# above	!	!	!	!	!	!
4F#X\	-um	4A/	-um	.	2d,<\	-um
2G\	o-	2B\	o	.	.	.
=9-	=9-	=9-	=9-	=9-	=9-	=9-
.	.	.	.	.	2.d\	o-
!LO:N:acc=-	!	!	!	!	!	!
4FnX\	.	4A/	.	.	.	.
4.E\	.	4.G/	.	.	.	.
.	.	.	.	.	4c\	-mni-
8E\	-mni-	8G/	mni-	.	.	.
4D\	-um	1A	-um	.	4d,<\	-um
4.D\	et	.	.	.	4.d\	et
8E\	in-	.	.	.	8c\	in-
!LO:TX:a:t=P:problem=# above	!	!	!	!	!	!
8F#X\	-vi-	.	.	.	8.A/	-vi-
!LO:TX:a:t=P:problem=# above	!	!	!	!	!	!
8G#X\	-si-	.	.	.	.	.
.	.	.	.	.	16B\	-si-
=10-	=10-	=10-	=10-	=10-	=10-	=10-
2.A\	-bi-	2r	.	.	4c#X\	-bi-
.	.	.	.	.	2d\	.
.	.	2.A/	Et	.	.	.
!	!	!	!	!	!LO:TX:a:t=P:problem=# above	!
4A\	-li-	.	.	.	4c#X\	-li-
!LO:LB:g=original	!	!	!	!	!	!
2D/	-um	.	.	.	2d,<\	-um
.	.	4A/	in	.	.	.
!	!	!LO:LB:g=original	!	!	!	!
4.D/	Et	4F#X/	u-	.	2.d\	Et
.	.	4D/	-num	.	.	.
8D/	in	.	.	.	.	.
=11-	=11-	=11-	=11-	=11-	=11-	=11-
4BB/	u-	4.d\	Do-	.	.	.
4GG/	-num	.	.	.	4B\	in
.	.	8d\	-mi-	.	.	.
4.Gny\	Do-	2B,<\	-num	.	4G/	u-
.	.	.	.	.	4G/	-num
8G\	-mi-	.	.	.	.	.
2E,<\	-num	4.e\	Et	.	8g\L	Do-
.	.	.	.	.	8f\J	.
.	.	.	.	.	2e\	.
.	.	8d\	in	.	.	.
4.A\	U-	4.c\	u-	.	.	.
.	.	.	.	.	4e\	-mi-
8G\	-num	8B\	-num	.	.	.
=12-	=12-	=12-	=12-	=12-	=12-	=12-
2.Fny\	Do-	2.A/	Do-	.	2f\	-num
.	.	.	.	.	2.cny\	Je-
4F\	-mi-	4A/	-mi-	.	.	.
2C,</	-num	1G,<	-num	.	.	.
.	.	.	.	.	4d\	.
!	!	!	!	!	!LO:LB:g=original	!
4C/	Je-	.	.	.	4e\	.
4BB/	.	.	.	.	4d\	.
=13-	=13-	=13-	=13-	=13-	=13-	=13-
(2AA/	.	2A/	Je-	.	2c\	.
2GG#X/)	-sum	4B\	-sum	.	2B\	-sum
.	.	2B\	Chri-	.	.	.
1AA	CHri-	.	.	.	1c	Chry-
.	.	8A/L	.	.	.	.
.	.	8G/J	.	.	.	.
.	.	2A/	.	.	.	.
=14-	=14-	=14-	=14-	=14-	=14-	=14-
4E,<\	-stum	4G#X/	-stum	.	4B\	-stum
4.E\	Fi-	4.G#/	Fi-	.	4.B\	Fi-
8E\	-li-	8G#/	-li-	.	8B\	-li-
*custos:G	*	*	*	*	*	*
4A\	-um	4A/	-um	.	4c\	-um
!LO:LB:g=original	!	!	!	!	!	!
2G\	De-	2B\	De-	.	2d\	De-
4E\	-i	4c\	-i	.	4e\	-i
2F\	u-	4.A/	u-	.	2c\	u-
=15-	=15-	=15-	=15-	=15-	=15-	=15-
.	.	.	.	.	.	.
.	.	8A/	-ni	.	.	.
!	!	!LO:LB:g=original	!	!	!	!
4C/	-ni	2c\	ge-	.	4e\	-ni
4.G\	ge-	.	.	.	4.d\	ge-
.	.	4B\	-ni-	.	.	.
8GGny/	-ni-	.	.	.	8d\	-ni-
2C/	-tum	4c,<\	-tum	.	4e\	-tum
.	.	2c\	Et	.	2e\	Et
2r	.	.	.	.	.	.
.	.	4B\	ex	.	4d\	ex
=16-	=16-	=16-	=16-	=16-	=16-	=16-
2r	.	4A/	Pa-	.	4c\	Pa-
.	.	4Gny/	-tre	.	4B\	-tre
4r	.	2Fny/	na-	.	2A/	na-
2A\	an-	.	.	.	.	.
.	.	2E/	-tum	.	2B\	-tum
!LO:TX:a:t=P:problem=# above	!	!	!	!	!	!
4G#X\	-te	.	.	.	.	.
4.A\	om-	4r	.	.	4r	.
.	.	2A/	an-	.	8.A/	an-
8A\	-ni-	.	.	.	.	.
.	.	.	.	.	16B\	-te
=17-	=17-	=17-	=17-	=17-	=17-	=17-
!	!	!	!	!	!LO:LB:g=original	!
2E\	-a	.	.	.	8.c\	om-
.	.	.	.	.	16c\	-ni-
.	.	4G#X/	-te	.	4B\	-a
(2AA/	sae-	[<2A/	o-	.	4.c\	sae-
.	.	.	.	.	8c\	-cu-
2.BB/)	.	8A/]	.	.	2.B\	-la
.	.	8A/	-mni-	.	.	.
.	.	4G#/	-a	.	.	.
.	.	4.F#X/	sae-	.	.	.
4BB/	-cu-	.	.	.	4B\	De-
.	.	8F#/	-cu-	.	.	.
=18-	=18-	=18-	=18-	=18-	=18-	=18-
4E\	-la	2E/	-la	.	4B\	-um
4E\	De-	.	.	.	4B\	de
4E\	-um	2r	.	.	2c\	De-
4E\	de	.	.	.	.	.
2F\	De-	4r	.	.	2A/	-o
.	.	4A/	De-	.	.	.
*custos:G	*	*	*	*	*	*
2D/	-o	4A/	-um	.	4r	.
.	.	4A/	de	.	4d\	Lu-
=19-	=19-	=19-	=19-	=19-	=19-	=19-
!LO:PB:g=original	!	!	!	!	!	!
4r	.	2B\	De-	.	4B\	-men
4Gny\	lu-	.	.	.	4G/	de
4E\	-men	2Gny/	-o	.	4.c\	lu-
4C/	de	.	.	.	.	.
.	.	.	.	.	8B\	-mi-
!	!	!LO:LB:g=original	!	!	!	!
4.F\	lu-	4r	.	.	2A/	-ne
.	.	4A/	lu-	.	.	.
8E\	-mi-	.	.	.	.	.
2D/	-ne	4A/	-men	.	2r	.
.	.	4A/	de	.	.	.
=20-	=20-	=20-	=20-	=20-	=20-	=20-
4r	.	4.B\	lu-	.	4d\	De-
8G\	De-	.	.	.	4d\	-um
8F\	-um	8A/	-mi-	.	.	.
4.E\	ve-	2G/	-ne	.	2e\	Ve-
16F\LL	.	.	.	.	.	.
16G\JJ	.	.	.	.	.	.
4A\	.	1r	.	.	4c\	-rum
8G\	-rum	.	.	.	4B\	de
8G\	de	.	.	.	.	.
!	!	!	!	!	!LO:LB:g=original	!
4F\	De-	.	.	.	2A/	De-
4E\	-o	.	.	.	.	.
=21-	=21-	=21-	=21-	=21-	=21-	=21-
4D/	ve-	2r	.	.	4A/	-o
4C/	.	.	.	.	2A/	Ve-
2BB/	.	4.B\	ge-	.	.	.
.	.	.	.	.	4G#X/	.
.	.	8B\	-ni-	.	.	.
2AA/	-ro	4c\	-tum	.	4A,</	-ro
.	.	4A/	non	.	2A/	ge-
2r	.	2.B\	fa-	.	.	.
.	.	.	.	.	4G#/	-ni-
=22-	=22-	=22-	=22-	=22-	=22-	=22-
2r	.	.	.	.	4.c\	-tum
.	.	2A/	.	.	.	.
.	.	.	.	.	8c\	non
4.E\	Ge-	.	.	.	2B\	fac-
!	!	!LO:TX:b:t=P:problem=# below	!	!	!	!
.	.	4G#X/	.	.	.	.
8E\	-ni-	.	.	.	.	.
!LO:LB:g=original	!	!	!	!	!	!
4F\	-tum	2A/	-ctum	.	8A/	-tum
.	.	.	.	.	8A/	non
4D/	non	.	.	.	2d\	fa-
2E\	fa-	2r	.	.	.	.
.	.	.	.	.	4c#X\	.
=23-	=23-	=23-	=23-	=23-	=23-	=23-
4D,</	-ctum	2r	.	.	2d\	.
2D/	con-	.	.	.	.	.
.	.	4.e\	ge-	.	2A/	-ctum
4C#X/	-sub-	.	.	.	.	.
.	.	8e\	-ni-	.	.	.
4.F\	-ſtan-	4.f\	-tum	.	1r	.
8D\	-ti-	8f\	non	.	.	.
2A\	-a-	2e\	fa-	.	.	.
=24-	=24-	=24-	=24-	=24-	=24-	=24-
4D,</	-lem	2d\	-ctum	.	4r	.
8D/L	Pa-	.	.	.	2A/	con-
8Cny/	.	.	.	.	.	.
8BB/	.	2r	.	.	.	.
8AA/J	.	.	.	.	.	.
!	!	!	!	!	!LO:TX:b:t=P:problem=# below	!
4BB/	.	.	.	.	4G#X/	-sub-
!	!	!LO:LB:g=original	!	!	!	!
4AA/	-tri	2r	.	.	4.cny\	-ſtan-
2A\	Pa-	.	.	.	.	.
*	*	*	*	*	*custos:B	*
!	!	!	!	!	!LO:TX:t=P:problem=wykreślone dwie nuty	!
.	.	.	.	.	8c\	-ti-
!	!	!	!	!	!LO:PB:g=original	!
.	.	4.E/	con-	.	2B\	-a-
!LO:TX:a:t=P:problem=# above	!	!	!	!	!	!
4G#X\	.	.	.	.	.	.
.	.	8E/	-sub-	.	.	.
=25-	=25-	=25-	=25-	=25-	=25-	=25-
2A\	-tri	4F#X/	-ſtan-	.	4A/	-lem
.	.	4D/	-ti-	.	(2d\	Pa-
2r	.	4.A/	-a-	.	.	.
.	.	.	.	.	2c\)	.
.	.	8Gny/	-lem	.	.	.
2r	.	4F#X/	Pa-	.	.	.
.	.	(2G/	.	.	4B\	-tri
2D/	per-	.	.	.	4A/	per-
.	.	4F#/)	.	.	4A/	-quem
=26-	=26-	=26-	=26-	=26-	=26-	=26-
2GG/	-quem	4G/	-tri	.	4B\	.
.	.	8G/	per-	[[o-	4.B\	-om-
.	.	8G/	-quem	-mni-	.	.
2r	.	4.G/	o-	-a]]	.	.
.	.	.	.	.	8B\	-ni-
.	.	.	.	.	4e\	-a
.	.	8E/	-mnia	.	.	.
!LO:TX:t=P:problem=dużo skreślonych nut	!	!	!	!	!	!
2r	.	2Fny/	fa-	.	8d\L	fa-
.	.	.	.	.	8c\J	.
.	.	.	.	.	2c\	.
!LO:TX:t=P:problem=tu dodałem pauzę 4r A.G.	!	!	!	!	!	!
4ryy	.	4G/	-cta	.	.	.
4r	.	4G/	.	.	4B\	-cta
=27-	=27-	=27-	=27-	=27-	=27-	=27-
4Gny\	per-	4c,<\	ſunt	.	4c,<\	ſunt
2C/	-quem	4c\	p(er)-	.	4c\	per-
.	.	4F,</	-quem	.	4A/	-quem
4r	.	4A/	p(er)-	.	4c\	per-
*	*ij	*	*	*	*	*
4F\	per-	4G,</	-q(uem)	.	4c\	-quem
4.C/	-quem	4.G/	o-	.	4.c\	om-
*	*Xij	*	*	*	*	*
8C/	om-	8G/	-mni-	.	8c\	-ni-
4AA/	-ni-	4c\	-a	.	4c\	-a
=28-	=28-	=28-	=28-	=28-	=28-	=28-
!	!	!LO:LB:g=original	!	!	!LO:LB:g=original	!
2BB-X/	-a	(>4.B-X\	fa-	.	2d\	fa-
.	.	8A/)	.	.	.	.
2C/	fa-	4.G/	.	.	2c\	-cta
.	.	8G/	-cta	.	.	.
4FF/	-cta	2A/	ſunt	.	4c,<\	ſunt
4F\	ſunt	.	.	.	4A/	qui
2A\	qui	4r	.	.	2c\	pro-
.	.	4F/	qui	.	.	.
=29-	=29-	=29-	=29-	=29-	=29-	=29-
2.F\	pro-	2A/	pro-	.	2c,<\	-pter
.	.	4F/	-pter	.	2c\	q(ui)
*	*	*	*ij	*	*	*
4F\	-pter	4A/	qui	.	.	.
!LO:LB:g=original	!	!	!	!	!	!
2BB-X/	pro-	2B-X\	pro-	.	2d\	p(ro)-
4BB-/	-pter	4B-\	-pter	.	4d\	-pter
*	*	*	*Xij	*	*	*
4AA/	nos	4c\	nos	.	4c\	no(s)
=30-	=30-	=30-	=30-	=30-	=30-	=30-
2.BB-X/	ho-	2.d\	ho-	.	4c\	ho-
.	.	.	.	.	8B-X\L	.
.	.	.	.	.	8A\J	.
.	.	.	.	.	4.B-\	.
4BB-/	-mi-	4d\	-mi-	.	.	.
.	.	.	.	.	8B-\	-mi-
4FF/	-nes	1c	-nes	.	2A/	-nes
4F\	et	.	.	.	.	.
4F\	p(ro)-	.	.	.	2r	.
4E\	-pter	.	.	.	.	.
=31-	=31-	=31-	=31-	=31-	=31-	=31-
2D/	no-	4r	.	.	0r	.
.	.	4d\	et	.	.	.
4AA,</	-ſtram	4d\	pro-	.	.	.
*	*ij	*	*	*	*	*
4A\	et	4d\	-pter	.	.	.
4A\	pro-	2Bny\	no-	.	.	.
4G\	-pter	.	.	.	.	.
2F\	no-	4A/	-ſtram	.	.	.
.	.	2A/	no-	.	.	.
=32-	=32-	=32-	=32-	=32-	=32-	=32-
4E,<\	-ſtram	.	.	.	4r	.
*	*Xij	*	*	*	*	*
4E\	et	4.G/	-ſtram	.	4e\	et
4C/	p(ro)-	.	.	.	4e\	p(ro)-
.	.	8A/	sa-	.	.	.
4BBny/	-pter	4B\	-lu-	.	4d\	-pter
!	!	!LO:LB:g=original	!	!	!	!
4.AA/	no-	4.c\	-tem	.	2.c\	no-
8GG/	-ſtram	8e\	.	.	.	.
4FF/	no-	4f\	no-	.	.	.
8GG/	-ſtram	4d\	-ſtram	.	8Bny\	-ſtram
8GG/	sa-	.	.	.	8B\	sa-
=33-	=33-	=33-	=33-	=33-	=33-	=33-
*custos:GG	*	*	*	*	*	*
!	!	!	!	!	!LO:LB:g=original	!
2D/	-lu-	2d\	sa-	.	2A/	-lu-
!LO:LB:g=original	!	!	!	!	!	!
4GG,</	-tem	4d\	-lu-	.	4B,<\	-tem
4G\	de-	2B\	-tem	.	4d\	de-
4E\	-ſcen-	.	.	.	2c\	-ſcen-
8F\	-dit	2A/	de-	.	.	.
8F\	de	.	.	.	.	.
8G\L	cae-	.	.	.	4B\	-dit
8F\	.	.	.	.	.	.
8E\	.	8G/	-ſcen-	.	4B\	de-
8D\J	.	8G/	-dit	.	.	.
=34-	=34-	=34-	=34-	=34-	=34-	=34-
4C/	.	2A/	de	.	4e\	-ſcen-
4D/	.	.	.	.	8d\L	.
.	.	.	.	.	8c\J	.
2GG/	.	2.G/	cae-	.	2B\	.
1AA	.	.	.	.	4.A/	-dit
.	.	4F/	.	.	.	.
.	.	.	.	.	8A/	de
.	.	2E/	.	.	2A/	cae-
=35-	=35-	=35-	=35-	=35-	=35-	=35-
!LO:TX:t=P:problem=kreska pseudotaktowa	!	!LO:TX:t=P:problem=kreska pseudotaktowa	!	!	!LO:TX:t=P:problem=kreska pseudotaktowa	!
1D	-lis	1F#X;	-lis	.	1A	-lis
00r	.	00r	.	.	2r	.
.	.	.	.	.	1d\	Et
=36-	=36-	=36-	=36-	=36-	=36-	=36-
.	.	.	.	.	.	.
.	.	.	.	.	1c	in-
.	.	.	.	.	.	.
.	.	.	.	.	2B\	-car-
=37-	=37-	=37-	=37-	=37-	=37-	=37-
.	.	.	.	.	2.A/	-na-
.	.	.	.	.	4A/	-tus
1GG	Et	2r	.	.	1Gny	eſt
.	.	1G/	Et	.	.	.
=38-	=38-	=38-	=38-	=38-	=38-	=38-
2.AA/	in-	.	.	.	00r	.
.	.	1Fny	in-	.	.	.
4AA/	-car-	.	.	.	.	.
2BB/	-na-	.	.	.	.	.
1C/	.	2E/	-car-	.	.	.
=39-	=39-	=39-	=39-	=39-	=39-	=39-
.	.	2.D/	-na-	.	.	.
2BB/	-tus	.	.	.	.	.
.	.	4D/	-tus	.	.	.
1C	eſt	1C	eſt	.	.	.
=40-	=40-	=40-	=40-	=40-	=40-	=40-
!LO:TX:b:B:t=punct	!	!LO:LB:g=original	!	!	!	!
1.C	de	0r	.	.	1c	.
!	!	!	!	!	!LO:LB:g=original	!
.	.	.	.	.	2.d\	spi-
1BB-X/	spi-	.	.	.	.	.
.	.	.	.	.	4d\	-ri-
=41-	=41-	=41-	=41-	=41-	=41-	=41-
.	.	2r	.	.	2e\	-tu
!LO:LB:g=original	!	!	!	!	!	!
2AA/	.	2F/	[[sub	de	1f	san-
2.GG/	.	2.G/	Pon-	spi-	.	.
.	.	.	.	.	2e\	.
4GG/	-ri-	4G/	-ti-	-ri-	.	.
=42-	=42-	=42-	=42-	=42-	=42-	=42-
1FF	-tu	(4A/	-o	-tu	2.f\	.
.	.	4B-X\)	Pi-	.	.	.
.	.	(1c	-la-	San-	.	.
.	.	.	.	.	4e\	.
1GG	san-	.	.	.	4d\	.
.	.	.	.	.	4c\	.
!	!	!LO:TX:a:t=P:problem=# above	!	!	!	!
!	!	!LO:N:acc=#	!	!	!	!
.	.	2Bn\)	.	.	2d\	.
=43-	=43-	=43-	=43-	=43-	=43-	=43-
4C,</	-cto	4c,<\	-to	-cto	4c,<\	-cto
2C/	Ex	2G/	Paſ-	Ex	2c\	ex
4BB-X/	Ma-	4G/	-sus	Ma-	4d\	Ma-
2AA/	-ri-	2A/	et	-ri-	2c\	-ri-
2GG/	-a	2B-X\	se-	-a	2d\	-a
=44-	=44-	=44-	=44-	=44-	=44-	=44-
2.AA/	vir-	2.c\	-pul-	Vir-	2.A/	vir-
4AA/	-gi-	4c\	-tus	-gi-	4A/	-gi-
!	!	!LO:N:acc=#	!	!	!	!
2GG/	-ne	2Bn\	eſt]]	-ne	4D,</	-ne
.	.	.	.	.	4d\	Et
4r	.	2r	.	.	2B\	Ho-
4G\	et	.	.	.	.	.
=45-	=45-	=45-	=45-	=45-	=45-	=45-
2E\	Ho-	2r	.	.	4G/	-mo
*	*	*	*	*	*custos:c	*
.	.	.	.	.	4G/	et
!	!	!	!	!	!LO:LB:g=original	!
4C/	-mo	4r	.	.	2.c\	Ho-
4C/	et	4e\	Paſ-	et	.	.
2AA/	Ho-	2c\	-sus	ho-	.	.
.	.	.	.	.	8d\L	.
.	.	.	.	.	8e\J	.
4FF/	-mo	4A/	et	-mo	2f\	.
*	*ij	*	*	*	*	*
*	*	*custos:c	*	*	*	*
4FF/	et	4c\	se	et	.	.
=46-	=46-	=46-	=46-	=46-	=46-	=46-
!	!	!LO:PB:g=original	!	!	!	!
2F\	Ho-	2c\	ho-	.	2f\	-mo
2E-X\	-mo	4c\	-mo	.	1c	fa-
*	*Xij	*	*	*	*	*
.	.	4G/	.	.	.	.
!LO:LB:g=original	!	!	!	!	!	!
1.D	fa-	1.d	fac-	.	.	.
.	.	.	.	.	2B-X\	.
=47-	=47-	=47-	=47-	=47-	=47-	=47-
.	.	.	.	.	2.A/	.
2D/	-ctus	2D/	-tus	.	.	.
.	.	.	.	.	4A/	-ctus
!LO:TX:t=P:problem=kreska pseudotaktowa	!	!LO:TX:t=P:problem=kreska pseudotaktowa	!	!	!LO:TX:t=P:problem=kreska pseudotaktowa	!
!	!	!LO:TX:a:t=Crucifixus infelius.	!	!	!LO:N:acc=#	!
1GG;	eſt	1D	eſt	.	1Bn	eſt
=48-	=48-	=48-	=48-	=48-	=48-	=48-
*	*	*M2/1	*	*	*	*
*	*	*met(C|)	*	*	*	*
!	!	!LO:TX:t=P:problem=Crucifixus wpisany na dole strony	!	!	!	!
!	!	!LO:TX:t=P:problem=w dopisanym fragmencie all\right	!	!	!	!
1r	.	1.d	Cru-	.	00r	.
1.G	Cru-	.	.	.	.	.
.	.	2B\	-ci-	.	.	.
=49-	=49-	=49-	=49-	=49-	=49-	=49-
.	-ci-	2.e\	-fi-	.	.	.
2Eny\	-fi-	.	.	.	.	.
!	!	!LO:TX:a:t=P:problem=# above	!	!	!	!
.	.	4d#X\	.	.	.	.
2.A\	.	4c\	.	.	.	.
.	.	4B\	.	.	.	.
!	!	!LO:TX:a:t=P:problem=# above	!	!	!	!
.	.	2c#X\	.	.	.	.
4G\	.	.	.	.	.	.
=50-	=50-	=50-	=50-	=50-	=50-	=50-
!LO:TX:a:t=P:problem=# above	!	!	!	!	!	!
4F#X\	.	2dny\	-xus	.	0r	.
4E\	.	.	.	.	.	.
2F#\	.	4.d\	e-	.	.	.
.	.	8cny\	-ti-	.	.	.
2G\	-xus	2B\	-am	.	.	.
4.G\	e-	2d\	pro	.	.	.
8F#\	-ti-	.	.	.	.	.
=51-	=51-	=51-	=51-	=51-	=51-	=51-
!	!	!LO:TX:t=P:problem=niewyraźny zapis	!	!	!	!
!	!	!LO:TX:a:t=P:<.....>:problem	!	!	!	!
4.E\	-am	4c\	.	.	1r	.
.	.	4B\	.	.	.	.
!LO:TX:a:t=P:problem=# above	!	!	!	!	!	!
8F#X\	pro-	.	.	.	.	.
2.G\	-no-	4A/	no-	.	.	.
.	.	4G/	.	.	.	.
.	.	1A	.	.	2r	.
!LO:TX:a:t=P:problem=# above	!	!	!	!	!	!
8F#X\L	.	.	.	.	.	.
8E\J	.	.	.	.	.	.
2F#\	.	.	.	.	2d\	Cru-
=52-	=52-	=52-	=52-	=52-	=52-	=52-
1G	-bis	1G	-bis	.	4G/	-ci-
.	.	.	.	.	4A/	-fi-
.	.	.	.	.	4B\	-xus
.	.	.	.	.	4c\	sub
!LO:LB:g=original	!	!	!	!	!	!
0r	.	00r	.	.	4d\	Pon-
.	.	.	.	.	4A\	-ti-
.	.	.	.	.	2.d\	-o
=53-	=53-	=53-	=53-	=53-	=53-	=53-
.	.	.	.	.	.	.
.	.	.	.	.	4G/	Pi-
!	!	!	!	!	!LO:LB:g=original	!
.	.	.	.	.	1c	-la-
1.G	Cru-	.	.	.	.	.
.	.	.	.	.	4B\	.
.	.	.	.	.	4A/	.
=54-	=54-	=54-	=54-	=54-	=54-	=54-
.	.	.	.	.	1B	.
2E\	-ci-	.	.	.	.	.
2.A\	-fi-	1r	.	.	2c,<\	-to
.	.	.	.	.	2c\	Pi-
4G\	.	.	.	.	.	.
=55-	=55-	=55-	=55-	=55-	=55-	=55-
!LO:TX:a:t=P:problem=# above	!	!	!	!	!	!
4F#X\	.	2r	.	.	1A	-la-
4E\	.	.	.	.	.	.
2F#\	.	4.d\	e-	.	.	.
.	.	8c\	-ti-	.	.	.
2G\	-xus	2B\	-am	.	2G/	-to
4.G\	e-	4.B\	pro	.	2d\	Pi-
8F#\	-ti-	8A/	.	.	.	.
=56-	=56-	=56-	=56-	=56-	=56-	=56-
4E\	-am	4G/	no-	.	(1e	-la-
4D/	pro	4F/	.	.	.	.
4C/	.	4E/	.	.	.	.
4BBny/	no-	8F/L	.	.	.	.
.	.	8G/J	.	.	.	.
(2AA/	.	2A/	.	.	2e\)	.
2BB/)	.	2d\	.	.	2.d\	.
=57-	=57-	=57-	=57-	=57-	=57-	=57-
2C,</	-bis	0G	-bis	.	.	.
.	.	.	.	.	8c\L	.
.	.	.	.	.	8B\J	.
2C/	sub	.	.	.	1c	.
4GG/	pon-	.	.	.	.	.
4AA/	-ti-	.	.	.	.	.
4BB/	-o	.	.	.	2B\	.
4C/	Pi-	.	.	.	.	.
=58-	=58-	=58-	=58-	=58-	=58-	=58-
!	!	!LO:LB:g=original	!	!	!	!
4D/	-la-	1r	.	.	1A	.
*custos:D	*	*	*	*	*	*
4AA/	.	.	.	.	.	.
!LO:PB:g=original	!	!	!	!	!	!
1D	.	.	.	.	.	.
.	.	2r	.	.	1A	-to
!LO:TX:b:t=P:problem=# below	!	!	!	!	!	!
2C#X/	.	2A/	Sub	.	.	.
=59-	=59-	=59-	=59-	=59-	=59-	=59-
2D,</	-to	4D/	Pon-	.	1r	.
.	.	4E/	-ti-	.	.	.
2D/	Pi-	4F/	-o	.	.	.
.	.	4G/	Pi-	.	.	.
[>1AA	-la-	4A/	-la-	.	2e\	sub
.	.	4B\	.	.	.	.
.	.	4c#X\	.	.	4.A/	Pon-
.	.	4d\	.	.	.	.
.	.	.	.	.	8B\	-ti-
=60-	=60-	=60-	=60-	=60-	=60-	=60-
!	!	!	!	!	!LO:LB:g=original	!
!	!	!	!	!	!LO:TX:a:t=P:problem=# above	!
1AA]	.	4e\	.	.	8c#X\	-o
.	.	.	.	.	8A\	Pi-
.	.	4f\	.	.	2d\	-la-
.	.	2e\	-to	.	.	.
!	!	!	!	!	!LO:TX:a:t=P:problem=# above	!
.	.	.	.	.	4c#\	.
1D	-to	1d	.	.	1d	-to
=61-	=61-	=61-	=61-	=61-	=61-	=61-
4GG/	Paſ-	2r	.	.	0r	.
4AA/	.	.	.	.	.	.
4BB-X/	.	1B-X	Paſ-	.	.	.
4GG/	.	.	.	.	.	.
1D,<	-sus	.	.	.	.	.
.	.	(4A/	.	.	.	.
.	.	4G/)	.	.	.	.
=62-	=62-	=62-	=62-	=62-	=62-	=62-
*	*ij	*	*	*	*	*
1D	Paſ-	1A	-sus	.	1r	.
4BB-X/	.	2r	.	.	1.B-X	Paſ-
4Cny/	.	.	.	.	.	.
4D/	.	(1d\	.	.	.	.
4BB-/	.	.	.	.	.	.
=63-	=63-	=63-	=63-	=63-	=63-	=63-
1Fny	.	.	.	.	.	.
.	.	4cny\	paſ-	.	4A/	.
.	.	4B-X\)	.	.	4G/	.
2FF/	-sus	1c	-sus	.	1A	-sus
*	*Xij	*	*	*	*	*
1F\	et	.	.	.	.	.
=64-	=64-	=64-	=64-	=64-	=64-	=64-
.	.	1r	.	.	1cny	et
*custos:D	*	*	*	*	*	*
2E\	se-	.	.	.	.	.
*lig	*	*	*	*	*	*
!LO:LB:g=original	!	!	!	!	!	!
1D	-pul-	1.A	et	.	1d	se-
=65-	=65-	=65-	=65-	=65-	=65-	=65-
!LO:TX:b:t=P:problem=# below	!	!	!	!	!	!
1C#	.	.	.	.	1e	-pul-
.	.	2G/	.	.	.	.
*Xlig	*	*	*	*	*	*
1D	.	1.F	se-	.	1A	-tus
=66-	=66-	=66-	=66-	=66-	=66-	=66-
!	!	!	!	!	!LO:N:vis=0.	!
0AA	-tus	.	.	.	00A	eſt
.	.	4E/	-pul-	.	.	.
.	.	4D/	.	.	.	.
.	.	2E/	-tus	.	.	.
.	.	2E/	.	.	.	.
=67-	=67-	=67-	=67-	=67-	=67-	=67-
!LO:TX:t=P:problem=kreska pseudotaktowa	!	!	!	!	!LO:TX:t=P:problem=kreska pseudotaktowa	!
!LO:N:vis=1	!	!LO:PB:g=original	!	!	!	!
0D	eſt	0F#X;>	eſt	.	.	.
.	.	.	.	.	.	.
=68||-	=68||-	=68||-	=68||-	=68||-	=68||-	=68||-
*M3/1	*	*M3/1	*	*	*M3/1	*
1D	Et	1d	Et	.	1d	Et
1BBny	re-	1Bny	re-	.	1.d	re-
1FF#X	-ſur-	1A	-ſur-	.	.	.
.	.	.	.	.	2c\	-(sur)-
=69-	=69-	=69-	=69-	=69-	=69-	=69-
!	!	!	!	!	!LO:LB:g=original	!
0.GG	-re-	0.B	-re-	.	0.d	-re-
=70-	=70-	=70-	=70-	=70-	=70-	=70-
0.D	-xit	0.A,<	-xit	.	0.d	-xit
=71-	=71-	=71-	=71-	=71-	=71-	=71-
*	*ij	*	*ij	*	*	*ij
1G	et	1B	et	.	1d	et
1E	re-	1c	re-	.	1e	re-
1BB	-ſur-	1d	-ſur-	.	1d	-sur-
=72-	=72-	=72-	=72-	=72-	=72-	=72-
0.Cny	-re-	1d	-re-	.	0.e	-re-
.	.	2c\	.	.	.	.
.	.	2B\	.	.	.	.
.	.	1c	.	.	.	.
=73||-	=73||-	=73||-	=73||-	=73||-	=73||-	=73||-
*M2/1	*	*M2/1	*	*	*M2/1	*
*met(C)	*	*met(C|)	*	*	*met(C|)	*
!	!	!LO:LB:g=original	!	!	!	!
4G\	-xit	4B,<\	-xit	.	4d,\	-xit
*	*Xij	*	*Xij	*	*	*Xij
4.G\	ter-	4.B\	ter-	.	4.d\	ter-
8G\	-ti-	8B\	-ti-	.	8d\	-ti-
4E\	-a	4c\	-a	.	4e\	-a
!LO:LB:g=original	!	!	!	!	!	!
(2F\	di-	4.f\	di-	.	8A\L	di-
.	.	.	.	.	8Bny\J	.
.	.	.	.	.	2c\	.
.	.	8e\L	.	.	.	.
2G\)	.	8d\	.	.	.	.
.	.	8c\J	.	.	.	.
.	.	4d\	-e	.	4B\	.
=74-	=74-	=74-	=74-	=74-	=74-	=74-
4C/	-e	4e\	e	.	2c\	-e
4c\	se-	4e\	se-	.	.	.
4c\	-cun-	4e\	-cun-	.	2r	.
8B\	-dum	8d\	-dum	.	.	.
8A\	scri-	8c\	scri-	.	.	.
2.G\	-ptu-	4.B\	-ptu-	.	4r	.
.	.	.	.	.	4B\	se-
.	.	8c\	.	.	.	.
.	.	[2d\	-ras	.	4B\	-cun-
!LO:TX:a:t=P:problem=# above	!	!	!	!	!	!
8F#X\L	.	.	.	.	8A/	-dum
8E\J	.	.	.	.	8ryy	.
=75-	=75-	=75-	=75-	=75-	=75-	=75-
!	!	!	!	!	!LO:PB:g=original	!
!LO:N:vis=1	!	!LO:N:vis=1	!	!	!LO:N:vis=1	!
0D	.	0d]	.	.	0G	ptu-
.	.	.	.	.	.	.
=76||-	=76||-	=76||-	=76||-	=76||-	=76||-	=76||-
*M3/1	*	*M3/1	*	*	*M3/1	*
0.GG	-ras	1d	Et	.	0.B	-ras
.	.	1.G	a-	.	.	.
*	*	*custos:d	*	*	*	*
.	.	2G/	-scen-	.	.	.
=77-	=77-	=77-	=77-	=77-	=77-	=77-
!	!	!LO:LB:g=original	!	!	!	!
1r	.	2d\	.	.	1r	.
.	.	2e\	.	.	.	.
1GG	Et	2d\	.	.	1B	et
.	.	2c\	.	.	.	.
1GG	a-	2B\	.	.	1B	a-
.	.	2A\	.	.	.	.
=78-	=78-	=78-	=78-	=78-	=78-	=78-
2C/	-scen-	1G	.	.	2e\	scen-
2D/	.	.	.	.	2f\	.
2C/	.	1G,<	-dit	.	2e\	.
2BB/	.	.	.	.	2d\	.
!	!	!LO:TX:t=P:problem=kreska pseudotaktowa	!	!	!	!
2AA/	.	1A	in	.	2c\	.
2GG/	.	.	.	.	2B\	.
=79-	=79-	=79-	=79-	=79-	=79-	=79-
1FFny	.	1A	cae-	.	1.A	.
1FF	-dit	1A,<	-lum	.	.	.
.	.	.	.	.	4B\	.
.	.	.	.	.	4c\	.
1FF	A-	1A	A-	.	2d\	.
.	.	.	.	.	2c\	.
=80-	=80-	=80-	=80-	=80-	=80-	=80-
!LO:LB:g=original	!	!	!	!	!	!
2GG/	-scen-	2B\	-ſcen-	.	1B	.
2AA/	.	2c\	.	.	.	.
2BB/	.	2d\	.	.	1B,<	-dit
2GG/	.	2c\	.	.	.	.
2G\	.	2B\	.	.	1B	A-
2Fny\	.	2A\	.	.	.	.
=81-	=81-	=81-	=81-	=81-	=81-	=81-
!	!	!	!	!	!LO:LB:g=original	!
1E	.	1G	.	.	2e\	scen-
.	.	.	.	.	2f\	.
1E,<	-dit	1G,<	-dit	.	2e\	.
.	.	.	.	.	2d\	.
*	*	*custos:A	*	*	*	*
1E	A-	1G	in	.	2c\	.
.	.	.	.	.	2B\	.
=82-	=82-	=82-	=82-	=82-	=82-	=82-
2A\	-ſcen-	0A	cae-	.	1A	.
2B-X\	.	.	.	.	.	.
2A\	.	.	.	.	1A,<	-dit
2G\	.	.	.	.	.	.
!	!	!LO:TX:t=P:problem=kreska pseudotaktowa	!	!	!	!
2F\	.	1A	-lum	.	1A	a-
2E\	.	.	.	.	.	.
=83-	=83-	=83-	=83-	=83-	=83-	=83-
!	!	!LO:TX:t=P:problem=pion.brakująca pauza 0.r	!	!	!	!
1D	.	0.ryy	.	.	1d	-ſcen-
!	!	!	!	!	!LO:TX:a:t=P:problem=# above	!
1AA	-dit	.	.	.	1c#X	-dit
1BB-X	in	.	.	.	1d	in
=84-	=84-	=84-	=84-	=84-	=84-	=84-
0.AA	cae-	1r	.	.	1d	cae-
!	!	!	!	!	!LO:TX:a:t=P:problem=# above	!
.	.	1r	.	.	2c#X\	.
.	.	.	.	.	2B\	.
.	.	1A	se-	.	1c#	.
=85-	=85-	=85-	=85-	=85-	=85-	=85-
0D,<	-lum	(1.F#X	-det	.	0.d	-lum
.	.	2E/)	.	.	.	.
!	!	!LO:TX:a:t=P:problem=# above	!	!	!	!
1D	se-	(2F#X/	ad	.	.	.
.	.	2G/)	.	.	.	.
=86-	=86-	=86-	=86-	=86-	=86-	=86-
!LO:LB:g=original	!	!	!	!	!	!
(>1.AA	-det	2A\	dex-	.	0.r	.
.	.	2B\	.	.	.	.
.	.	2c\	.	.	.	.
2GG/)	.	2B\	.	.	.	.
(>2AA/	ad	2c\	.	.	.	.
2BBny/)	.	2d\	.	.	.	.
=87-	=87-	=87-	=87-	=87-	=87-	=87-
0C	dex-	0e	.	.	1r	.
.	.	.	.	.	1r	.
*	*	*	*	*	*custos:B	*
1C	-te-	1e	-te-	.	1cny	se-
=88-	=88-	=88-	=88-	=88-	=88-	=88-
!	!	!	!	!	!LO:LB:g=original	!
0GG	-ram	0d	-ram	.	(1.B	-det
.	.	.	.	.	2A\)	.
1G	se-	1B	ad	.	(2.B\	ad
.	.	.	.	.	4c\)	.
=89-	=89-	=89-	=89-	=89-	=89-	=89-
(<1.D	-det	0A	dex-	.	0d	dex-
2C/)	.	.	.	.	.	.
(<2D/	ad	1A	-te-	.	1d	-te-
2E/)	.	.	.	.	.	.
=90-	=90-	=90-	=90-	=90-	=90-	=90-
*	*	*	*	*	*col	*
!	!	!LO:LB:g=original	!	!	!	!
1.F	dex-	0.A	-ram	.	0c	-ram
2F\	-te-	.	.	.	.	.
1D	-ram	.	.	.	0d	Pa-
=91-	=91-	=91-	=91-	=91-	=91-	=91-
*^	*	*	*	*	*	*
*col	*	*	*	*	*	*	*
1G	1GG	pa-	(1B-X	pa-	.	.	.
!	!	!	!	!	!	!LO:TX:b:t=P:problem=# below	!
0A	0AA	.	0A)	.	.	0c#	.
*Xcol	*	*	*	*	*	*	*
*v	*v	*	*	*	*	*	*
=92-	=92-	=92-	=92-	=92-	=92-	=92-
0D,<	-tris	0.A	-tris	.	0d,<	-tris
*	*	*	*	*	*Xcol	*
1D	Et	.	.	.	1d	Et
=93-	=93-	=93-	=93-	=93-	=93-	=93-
!LO:LB:g=original	!	!	!	!	!	!
1.E	i-	0.r	.	.	1.B	i-
2E\	-te-	.	.	.	2B\	-te-
1C,<	-rum	.	.	.	1cny	-rum
=94-	=94-	=94-	=94-	=94-	=94-	=94-
*	*	*	*	*	*col	*
1E	ven-	1r	.	.	1B	ven-
1C	-tu-	1r	.	.	1.A	-tu-
1D	-rus	1d	cum	.	.	.
.	.	.	.	.	2A/	-rus
*	*	*	*	*	*Xcol	*
=95-	=95-	=95-	=95-	=95-	=95-	=95-
0GG,<	est	1d	glo-	.	0.B	eſt
.	.	2d\	-ri-	.	.	.
.	.	2c\	-a	.	.	.
1G	cum	2.Bny\	iu-	.	.	.
!	!	!LO:TX:t=P:problem=kreska pseudotaktowa	!	!	!	!
.	.	4A/	-di-	.	.	.
=96-	=96-	=96-	=96-	=96-	=96-	=96-
!	!	!	!	!	!LO:LB:g=original	!
1G	glo-	2.G/	-ca-	.	1r	.
.	.	4A/	.	.	.	.
2G\	-ri-	2.B\	.	.	1r	.
2F\	-a	.	.	.	.	.
.	.	4A/	.	.	.	.
2.E\	iu-	2.G/	.	.	1e	cum
4D/	-di-	4Fny/	.	.	.	.
=97-	=97-	=97-	=97-	=97-	=97-	=97-
0C	-ca-	0E	.	.	1e	glo-
.	.	.	.	.	2e\	-ri-
.	.	.	.	.	2d,<\	-a
1C	-re	1G	-re	.	2c\	iu-
.	.	.	.	.	2B\	-di-
=98-	=98-	=98-	=98-	=98-	=98-	=98-
!	!	!LO:LB:g=original	!	!	!	!
0.F	vi-	2A/	vi-	.	1.A	-ca-
.	.	2G/	.	.	.	.
!	!	!LO:TX:t=P:problem=kreska pseudotaktowa	!	!	!	!
.	.	0F	.	.	.	.
.	.	.	.	.	2G/	.
.	.	.	.	.	2A/	.
.	.	.	.	.	2B\	.
=99-	=99-	=99-	=99-	=99-	=99-	=99-
0E	-vos	0G,<	-vos	.	1c	-re
.	.	.	.	.	1c	vi-
1E	et	1G	et	.	1c	-vos
=100-	=100-	=100-	=100-	=100-	=100-	=100-
0D	mor-	0d	mor-	.	1c	et
.	.	.	.	.	2B\	mor-
.	.	.	.	.	2A/	.
1D	-tu-	1d	-tu-	.	2.B\	.
.	.	.	.	.	4B\	-tu-
=101-	=101-	=101-	=101-	=101-	=101-	=101-
!LO:LB:g=original	!	!	!	!	!	!
1C,<	-os	1G,<	-os	.	1c,<	-os
1C	cu-	1.G	cu-	.	1c	cu-
1BB	-ius	.	.	.	1d	-ius
.	.	2G/	-ius	.	.	.
=102-	=102-	=102-	=102-	=102-	=102-	=102-
!	!	!	!	!	!LO:LB:g=original	!
0C	Re-	0G	Re-	.	0c	Re-
1GG	-gni	1G	-gni	.	1B	-gni
=103-	=103-	=103-	=103-	=103-	=103-	=103-
1G	non	1B	non	.	00.r	.
1A	e-	1c	e-	.	.	.
1F	-rit	1A	-rit	.	.	.
=104-	=104-	=104-	=104-	=104-	=104-	=104-
1E	non	1B	non	.	.	.
2C/	e-	2e\	e-	.	.	.
2D/	.	2d\	.	.	.	.
2E\	.	1c	.	.	.	.
2F\	-rit	.	.	.	.	.
=105-	=105-	=105-	=105-	=105-	=105-	=105-
*lig	*	*col	*	*	*	*
1G	fi-	1B	-rit	.	0.r	.
1C	.	0A	fi-	.	.	.
*Xlig	*	*Xcol	*	*	*	*
1D	.	.	.	.	.	.
=106-	=106-	=106-	=106-	=106-	=106-	=106-
!	!	!LO:LB:g=original	!	!	!	!
1GG	-nis	1B,<	-nis	.	0d	Et
1G	Et	1B	Et	.	.	.
1F#X	in	1A	in	.	1d	in
=107-	=107-	=107-	=107-	=107-	=107-	=107-
1.G	spi-	1.B	spi-	.	1.d	spi-
2G\	-ri-	2B\	-ri-	.	2d\	-ri-
1G	-tum	1B	-tum	.	1d	-tum
=108-	=108-	=108-	=108-	=108-	=108-	=108-
!LO:LB:g=original	!	!	!	!	!	!
*col	*	*	*	*	*col	*
0C	san-	2c\	san-	.	0e	san-
.	.	4B\	.	.	.	.
.	.	4A\	.	.	.	.
.	.	2G/	.	.	.	.
.	.	2A\	.	.	.	.
0BB	-ctum	1B	.	.	0d	-ctum
=109-	=109-	=109-	=109-	=109-	=109-	=109-
.	.	1G	-ctum	.	.	.
1.AA	do-	1.A	Do-	.	1.c	Do-
2AA/	-mi-	2A/	-mi-	.	2c\	-mi-
*Xcol	*	*	*	*	*Xcol	*
=110-	=110-	=110-	=110-	=110-	=110-	=110-
1GG	-num	1d,<	-num	.	1B,<	-num
1G	et	1B	Et	.	1d	Et
1E	vi-	1c	vi-	.	1e	vi-
=111-	=111-	=111-	=111-	=111-	=111-	=111-
1.Fny	-vi-	1.A	-vi-	.	1.c	-vi-
2D/	-fi-	2A/	-fi-	.	2d\	-fi-
1A	-can-	1A	-can-	.	1c	-can-
=112-	=112-	=112-	=112-	=112-	=112-	=112-
!	!	!LO:LB:g=original	!	!	!LO:LB:g=original	!
1D,<	-tem	0A	-tem	.	0.d	-tem
(2D\	qui	.	.	.	.	.
2E\)	.	.	.	.	.	.
!LO:TX:a:t=P:problem=# above	!	!	!	!	!	!
(2F#X\	ex	1r	.	.	.	.
2D\)	.	.	.	.	.	.
=113-	=113-	=113-	=113-	=113-	=113-	=113-
0G	Pa-	1r	.	.	1r	.
.	.	(2G/	qui	.	(2B\	qui
.	.	2A/)	.	.	2c\)	.
1G	-tre	(2B/	ex	.	(2d\	ex
.	.	2G/)	.	.	2B\)	.
=114-	=114-	=114-	=114-	=114-	=114-	=114-
1.C	Fi-	0c	Pa-	.	0e	Pa-
2C/	-li-	.	.	.	.	.
*custos:AA	*	*	*	*	*	*
1GG	-o-	1B	-tre	.	1d	-tre
=115-	=115-	=115-	=115-	=115-	=115-	=115-
!LO:PB:g=original	!	!	!	!	!	!
1.AA	-q(ue)	1A	Fi-	.	1c	Fi-
.	.	2A/	-li-	.	2c\	-li-
2BB/	.	2G/	-o-	.	2d\	-o-
1C	.	2.E/	-q(ue)	.	1e	-q(ue)
.	.	4E/	pro-	.	.	.
=116-	=116-	=116-	=116-	=116-	=116-	=116-
*col	*	*	*	*	*col	*
1AA	pro-	0A	-ce-	.	1c	pro-
0E	-ce-	.	.	.	0B	-ce-
!	!	!LO:TX:a:t=P:problem=# above	!	!	!	!
.	.	1G#X	.	.	.	.
*Xcol	*	*	*	*	*Xcol	*
=117-	=117-	=117-	=117-	=117-	=117-	=117-
1AA,<	-dit	1A,<	-dit	.	1c,<	-dit
1AA	qui	1c	qui	.	1e	qui
1E	cum	1A	cum	.	1e	cum
=118-	=118-	=118-	=118-	=118-	=118-	=118-
0A	Pa-	0c	Pa-	.	0e	Pa-
1A	-tre	1c,<	-tre	.	1e	-tre
=119-	=119-	=119-	=119-	=119-	=119-	=119-
!	!	!LO:PB:g=original	!	!	!LO:LB:g=original	!
1Fny	et	1c	et	.	1f	et
1.G	Fi-	1.B	Fi-	.	1.d	Fi-
2G\	-li-	2B\	-li-	.	2d\	-li-
=120-	=120-	=120-	=120-	=120-	=120-	=120-
0.C	-o	0.c	-o	.	0.e,<	-o
=121-	=121-	=121-	=121-	=121-	=121-	=121-
1.C	si-	1.c	si-	.	1.e	si-
2G\	-mul	2B\	-mul	.	2d\	-mul
1A	A-	1A	a-	.	1c	a-
=122-	=122-	=122-	=122-	=122-	=122-	=122-
!LO:LB:g=original	!	!	!	!	!	!
*col	*	*	*	*	*col	*
1E	-do-	1G#X	-do-	.	1B	-do-
0F	-ra-	0A	-ra-	.	0A	-ra-
*Xcol	*	*	*	*	*Xcol	*
=123-	=123-	=123-	=123-	=123-	=123-	=123-
!	!	!LO:TX:t=P:ligatura/kasownik/bemol?:problem	!	!	!	!
!	!	!LO:N:acc=-	!	!	!	!
0E	-tur	0GnX	-tur	.	0B,<	-tur
1E	et	1G	et	.	1B	et
=124-	=124-	=124-	=124-	=124-	=124-	=124-
1.C	con-	1.G	con-	.	1.c	con-
2GG/	-glo-	2B\	-glo-	.	2d\	-glo-
1AA	-ri-	1A	-ri-	.	1c	-ri-
=125-	=125-	=125-	=125-	=125-	=125-	=125-
*	*	*	*	*	*col	*
1BB	-fi-	1d	-fi-	.	1B	-fi-
*lig	*	*lig	*	*	*	*
1C	-ca-	1e	-ca-	.	0A	-ca-
1D	.	1d	.	.	.	.
*Xlig	*	*Xlig	*	*	*Xcol	*
=126||-	=126||-	=126||-	=126||-	=126||-	=126||-	=126||-
*M2/1	*	*M2/1	*	*	*M2/1	*
*met(C)	*	*met(C)	*	*	*met(C|)	*
!	!	!LO:LB:g=original	!	!	!LO:LB:g=original	!
2GG,</	-tur	4d,\	-tur	.	2B\	-tur
.	.	4d\	qui	.	.	.
!	!	!LO:TX:a:t=P:problem=♭ above	!	!	!	!
4G\	qui	4A-X\	lo-	.	4B\	qui
4E\	lo-	4.e\	-cu-	.	4G/	lo-
!LO:TX:a:B:t=a	!	!	!	!	!	!
(4.A\	-cu-	.	.	.	4.c\	-cu-
.	.	8d\	-tus	.	.	.
.	.	2c\	eſt	.	.	.
8G\)	.	.	.	.	8B\	.
4.F\	-tus	.	.	.	4.A/	.
.	.	4d\	per	.	.	.
8F\	eſt	.	.	.	8A/	-tus
=127-	=127-	=127-	=127-	=127-	=127-	=127-
4E\	per	4B\	pro-	.	4G/	eſt
8C/L	Pro-	2e\	-phe-	.	2G/	per
8D/J	.	.	.	.	.	.
!LO:LB:g=original	!	!	!	!	!	!
!LO:TX:t=P:problem=mixed beam	!	!	!	!	!	!
8E\L	.	.	.	.	.	.
8F\	.	.	.	.	.	.
8G\	.	4d\	.	.	4G/	Pro-
8GG/J	.	.	.	.	.	.
4.C/	-phe-	8c\L	.	.	8E/L	-he-
.	.	8d\	.	.	8F/J	.
.	.	8e\	.	.	2G/	.
8BB/	.	8d\J	.	.	.	.
2AA/	.	2c\	.	.	.	.
!	!	!	!	!	!LO:TX:b:t=P:problem=# below	!
.	.	.	.	.	4F#/	.
=128-	=128-	=128-	=128-	=128-	=128-	=128-
4GG/	-tas	4B\	-tas	.	4.G/	-tas
4G\	Et	4B\	et	.	.	.
.	.	.	.	.	8c\	E(t)
4G\	u-	4B\	u-	.	4d\	u-
!LO:TX:a:t=P:problem=# above	!	!	!	!	!	!
4F#X\	-nam	4Any\	-nam	.	4d\	-nam
2G\	san-	2B\	san-	.	2d\	san-
4E\	-ctam	8c\	-ctam	.	4e\	-ctam
!	!	!LO:TX:a:t=P:problem=# above	!	!	!	!
.	.	8c#X\	Ca-	.	.	.
4D/	Ca-	2d\	-tho-	.	4f\	Ca-
=129-	=129-	=129-	=129-	=129-	=129-	=129-
!	!	!	!	!	!LO:PB:g=original	!
4.AA/	-tho-	.	.	.	4.e\	-tho-
.	.	4cny\	-li-	.	.	.
8AA/	-li-	.	.	.	8e\	-li-
!	!	!LO:LB:g=original	!	!	!	!
4D/	-cam	4d,<\	-cam	.	4d,<\	-cam
4D/	Et	4A/	et	.	4d\	Et
4D/	A-	4.A/	A-	.	4d\	A-
4C#X/	-po-	.	.	.	4e\	-po-
.	.	8A/	-po-	.	.	.
4.D/	-sto-	4.A/	-sto-	.	4.d\	-sto-
8D/	-li-	8A/	-li-	.	8d\	-li-
=130-	=130-	=130-	=130-	=130-	=130-	=130-
!LO:LB:g=original	!	!	!	!	!	!
4BB/	-cam	4B\	-cam	.	4d,<\	-cam
4AA/	Ec-	4c\	Ec-	.	4e\	Ec-
4.E\	-cle-	4.B\	-cle-	.	4.e\	-cle-
8E\	-si-	8B\	-si-	.	8e\	-si-
2AA/	-am	2c\	-am	.	4e,<\	-am
.	.	.	.	.	4A/	Con-
2r	.	2r	.	.	4.d\	-fi-
.	.	.	.	.	8d\	-te-
=131-	=131-	=131-	=131-	=131-	=131-	=131-
2r	.	2r	.	.	2c,<\	-or
!	!	!	!	!	!LO:TX:a:t=P:problem=# above	!
2A\	u-	2A/	U-	.	2c#X\	u-
2G\	-num	2B-X\	-num	.	2d\	-num
2F#X\	Ba-	2A/	Ba-	.	2d\	Ba-
=132-	=132-	=132-	=132-	=132-	=132-	=132-
!LO:N:vis=1	!	!LO:N:vis=1	!	!	!LO:N:vis=1	!
0G	-pti-	0B-X	-pti-	.	0d	-pti-
=133||-	=133||-	=133||-	=133||-	=133||-	=133||-	=133||-
*M3/1	*	*M3/1	*	*	*M3/1	*
!	!	!	!	!	!LO:LB:g=original	!
1D,<	-sma	1A	-sma	.	1d,<	-sma
1D	in	1.A	in	.	1d	in
1AA	re-	.	.	.	1cny	re-
.	.	2A/	re-	.	.	.
=134-	=134-	=134-	=134-	=134-	=134-	=134-
!	!	!LO:LB:g=original	!	!	!	!
0BB-X	-miſ-	0F	-miſ-	.	0B-X	-miſ-
1FF	-si-	1F	-si-	.	1A	-si-
=135-	=135-	=135-	=135-	=135-	=135-	=135-
1.GG	-o-	1.B-X	-o-	.	1.G	-o-
2D/	-nem	2d\	-nem	.	2Fny/	-nem
1E-X	pec-	2.B-X\	pec-	.	1G	pec-
.	.	4G/	-ca-	.	.	.
=136-	=136-	=136-	=136-	=136-	=136-	=136-
1Cny	-ca-	0c	-to-	.	1G	-ca-
0GG	-to-	.	.	.	0G	-to-
!	!	!LO:TX:b:t=P:problem=# below	!	!	!	!
!	!	!LO:N:acc=#	!	!	!	!
.	.	1Bn	.	.	.	.
=137-	=137-	=137-	=137-	=137-	=137-	=137-
1C,<	-rum	1c,<	-rum	.	1G,<	-rum
1C	et	1.G	et	.	1c	Et
1GG	ex-	.	.	.	1Bny	ex-
.	.	2G/	ex-	.	.	.
=138-	=138-	=138-	=138-	=138-	=138-	=138-
0C	-pe-	0G	-pe-	.	0c	-pe-
1C	-cto	1G	-cto	.	1c	-cto
=139-	=139-	=139-	=139-	=139-	=139-	=139-
00.r	.	1r	.	.	1r	.
.	.	1.c	re-	.	1.e	re-
.	.	2B-X\	-sur-	.	2d\	-ſur-
=140-	=140-	=140-	=140-	=140-	=140-	=140-
!	!	!	!	!	!LO:LB:g=original	!
.	.	1.A	-re-	.	1.c	-re-
.	.	2F/	-cti-	.	2A/	-cti-
.	.	1.B-X	-o-	.	1.d	-o-
=141-	=141-	=141-	=141-	=141-	=141-	=141-
0.r	.	.	.	.	.	.
.	.	2A/	.	.	2c\	.
!	!	!LO:LB:g=original	!	!	!	!
.	.	2G/	.	.	2B-X\	.
.	.	2F/	-nem	.	2A/	-nem
.	.	1E	mor-	.	1G	mor-
=142-	=142-	=142-	=142-	=142-	=142-	=142-
*	*	*col	*	*	*	*
!LO:TX:t=P:problem=pion.brakująca pauza 0.r	!	!	!	!	!	!
0.ryy	.	1D	-tu-	.	1F	-tu-
.	.	0A	-o-	.	0E	-o-
*	*	*Xcol	*	*	*	*
=143-	=143-	=143-	=143-	=143-	=143-	=143-
1r	.	0.A	-rum	.	1F-X	-rum
*col	*	*	*	*	*	*
0AA	Et	.	.	.	1r	.
*Xcol	*	*	*	*	*	*
!	!	!	!	!	!LO:TX:a:t=P:problem=# above	!
.	.	.	.	.	1c#X	Et
=144-	=144-	=144-	=144-	=144-	=144-	=144-
1D	vi-	1r	.	.	1d	vi-
1Fny	-tam	1r	.	.	1d	-tam
1A	ven-	1A	et	.	1cny	ven-
=145-	=145-	=145-	=145-	=145-	=145-	=145-
1D	-tu-	1F	vi-	.	2f\	-tu-
.	.	.	.	.	2e\	.
1BB-X	-ri	1B-X	-tam	.	1d	.
*	*	*	*	*	*custos:c	*
1C	ven-	1G	ven-	.	1c	-ri
=146-	=146-	=146-	=146-	=146-	=146-	=146-
!	!	!	!	!	!LO:LB:g=original	!
2FF/	-tu-	2A\	-tu-	.	1.c	sae-
2GG/	.	2B-X\	.	.	.	.
*	*	*col	*	*	*	*
2AA/	.	0c	.	.	.	.
2BB-X/	.	.	.	.	4B-X\	.
.	.	.	.	.	4A/	.
1C	.	.	.	.	2G/	.
.	.	.	.	.	2A/	.
=147-	=147-	=147-	=147-	=147-	=147-	=147-
*	*	*	*	*	*lig	*
1BB-X	-ri	1d	-ri	.	1B-X	.
*	*	*	*	*	*	*
1.D	sae-	1.d	sae-	.	1.A	.
*	*	*	*	*	*Xlig	*
2D/	-cu-	2d\	-cu-	.	2A/	-cu-
*	*	*	*	*	*	*
=148-	=148-	=148-	=148-	=148-	=148-	=148-
!LO:LB:g=original	!	!	!	!	!LO:N:acc=#	!
0.GG	-li	0.d	-li	.	0.BnX	-li
*	*	*Xcol	*	*	*	*
=149-	=149-	=149-	=149-	=149-	=149-	=149-
*lig	*	*	*	*	*lig	*
1G	A-	00.r	.	.	1d	A-
1c	.	.	.	.	1e	.
*Xlig	*	*	*	*	*Xlig	*
1A	.	.	.	.	1c	.
=150-	=150-	=150-	=150-	=150-	=150-	=150-
0.G	-men	.	.	.	1Bny	.
.	.	.	.	.	2G/	.
.	.	.	.	.	2A/	.
.	.	.	.	.	2B\	.
.	.	.	.	.	2c\	.
=151-	=151-	=151-	=151-	=151-	=151-	=151-
*lig	*ij	*	*	*	*	*
1F#X	A-	0.r	.	.	0d	.
1G	.	.	.	.	.	.
*Xlig	*	*	*	*	*	*
!	!	!	!	!	!LO:TX:b:t=P:problem=# below	!
1A	.	.	.	.	1c#	.
=152-	=152-	=152-	=152-	=152-	=152-	=152-
*lig	*	*lig	*	*	*	*
!	!	!LO:LB:g=original	!	!	!	!
1D	.	1A	A-	.	0d	-men
1G	.	1Bny	.	.	.	.
*Xlig	*	*Xlig	*	*	*	*ij
1Eny	.	1G	.	.	0d	a-
*	*	*	*	*	*	*
=153-	=153-	=153-	=153-	=153-	=153-	=153-
0.D	-men	1F#X	.	.	.	.
*	*Xij	*	*	*	*	*
.	.	2D/	.	.	1A	.
.	.	2E/	.	.	.	.
!	!	!LO:TX:b:t=P:problem=# below	!	!	!LO:LB:g=original	!
.	.	2F#X/	.	.	1cny	.
.	.	2G/	.	.	.	.
=154-	=154-	=154-	=154-	=154-	=154-	=154-
*lig	*	*	*	*	*	*
1C	A-	0A	.	.	0B	.
1D	.	.	.	.	.	.
*Xlig	*	*	*	*	*	*
!	!	!LO:TX:a:t=P:problem=# above	!	!	!	!
1E	.	1G#X	-men	.	2c\	.
.	.	.	.	.	2d\	.
=155-	=155-	=155-	=155-	=155-	=155-	=155-
*	*	*	*ij	*	*	*
2AA/	.	2A/	A-	.	2e\	.
2BBny/	.	2Gny/	.	.	4d\	.
.	.	.	.	.	4c\	.
2C/	.	2E/	.	.	1B	.
2D/	.	2Fny/	.	.	.	.
!LO:TX:a:t=P:col?:problem	!	!	!	!	!	!
0E	.	1G	.	.	1d	.
=156-	=156-	=156-	=156-	=156-	=156-	=156-
.	.	0c	.	.	0d	.
1Fny	.	.	.	.	.	.
*	*	*	*	*	*lig	*
1G	.	1B	.	.	1c	-men
*	*	*	*	*	*	*Xij
=157-	=157-	=157-	=157-	=157-	=157-	=157-
*lig	*	*lig	*	*	*	*
!LO:LB:g=original	!	!	!	!	!	!
1C	.	1e	.	.	1A	.
*	*	*	*	*	*Xlig	*
1F	.	1c	.	.	1d	A-
*Xlig	*	*Xlig	*	*	*	*
1D	.	1B	.	.	1G	-men
=158-	=158-	=158-	=158-	=158-	=158-	=158-
*	*	*	*	*	*	*ij
0.C	-men	0.c	-men	.	1.G	A-
*	*	*	*Xij	*	*	*
.	.	.	.	.	2A/	.
.	.	.	.	.	1B	.
=159-	=159-	=159-	=159-	=159-	=159-	=159-
*	*ij	*lig	*	*	*	*
!	!	!LO:LB:g=original	!	!	!	!
1BB	A-	1d	A-	.	0B	men
1C	.	1e	.	.	.	.
*	*	*Xlig	*	*	*	*
1D	.	1d	.	.	1ryy	.
=160||-	=160||-	=160||-	=160||-	=160||-	=160||-	=160||-
*M2/1	*	*M2/1	*	*	*M2/1	*
*met(C|)	*	*met(C|)	*	*	*met(C|)	*
2GG/	-men	2d\	-men	.	4B\	A-
.	.	.	.	.	4d\	.
*	*	*	*ij	*	*	*
2C/	A-	2c\	A-	.	4e\	.
.	.	.	.	.	4c\	.
!	!	!	!	!	!LO:LB:g=original	!
2.G\	.	4d\	.	.	4B\	.
.	.	4d\	.	.	8G\L	.
.	.	.	.	.	8A\	.
.	.	4.d\	.	.	8B\	.
.	.	.	.	.	8c\J	.
4F\	.	.	.	.	4d\	.
.	.	8d\	.	.	.	.
=161-	=161-	=161-	=161-	=161-	=161-	=161-
4.E\	.	4e\	.	.	4c\	.
.	.	4c\	.	.	4e\	.
8F\	.	.	.	.	.	.
2G\	.	4B\	.	.	4.d\	.
.	.	8G/L	.	.	.	.
.	.	8A/	.	.	8c\	.
8GG/L	.	8B/	.	.	2B\	.
8AA/	.	8c/J	.	.	.	.
8BB/	.	2d\	.	.	.	.
8C/J	.	.	.	.	.	.
4D/	.	.	.	.	4A/	.
4C/	.	4e\	.	.	2d\	.
=162-	=162-	=162-	=162-	=162-	=162-	=162-
4D/	.	1d	.	.	.	.
4GG/	.	.	.	.	4B\	.
2D/	.	.	.	.	2A/	.
!LO:N:vis=0	!	!LO:N:vis=0	!	!	!LO:N:vis=0	!
1GG	-men	1d;<	-men	.	1B;<	-men
*	*Xij	*	*Xij	*	*	*Xij
=-	=-	=-	=-	=-	=-	=-
*-	*-	*-	*-	*-	*-	*-
!!!system-decoration: [(s1,s2,s3)]
!!!RDF**kern: < = below
!!!RDF**kern: > = above
!!!ENC: Marta Chmielewska
!!!END: 2021-07-07
!!!ENC: Andrzej Gręziak
!!!END: 2021-06-25
!!!YEC: Copyright 2022 Narodowy Instytut Fryderyka Chopina (https://polishscores.org)
!!!YEM: License CC-BY-4.0 (https://creativecommons.org/licenses/by/4.0)
